icons/svg/24x24/emoji activated/filled.svg

<svg width="24" height="24" fill="none" xmlns="http://www.w3.org/2000/svg">
  <path fill-rule="evenodd" clip-rule="evenodd" d="M12 13H7c0 2 2.266 4 5 4s5-2 5-4h-5zm-3.022-1.603c.829 0 1.5-.839 1.5-1.875s-.671-1.875-1.5-1.875-1.5.839-1.5 1.875.671 1.875 1.5 1.875zm6 0c.829 0 1.5-.839 1.5-1.875s-.671-1.875-1.5-1.875-1.5.839-1.5 1.875.671 1.875 1.5 1.875zM12 22c-1.8 0-3.555-.192-5.246-.558a5.476 5.476 0 01-4.196-4.197A24.76 24.76 0 012 12c0-1.8.192-3.555.558-5.245a5.476 5.476 0 014.196-4.197A24.776 24.776 0 0112 2c1.8 0 3.555.192 5.246.558a5.474 5.474 0 014.196 4.197A24.76 24.76 0 0122 12c0 1.801-.192 3.556-.558 5.246a5.472 5.472 0 01-4.197 4.196A24.76 24.76 0 0112 22z" fill="#000"/>
</svg>

<svg xmlns="http://www.w3.org/2000/svg" width="24" height="24" viewBox="0 0 24 24">
  <path fill-rule="evenodd" d="M12,13 L7,13 C7,15 9.266,17 12,17 C14.734,17 17,15 17,13 L12,13 Z M8.978,11.397 C9.807,11.397 10.478,10.558 10.478,9.522 C10.478,8.486 9.807,7.647 8.978,7.647 C8.149,7.647 7.478,8.486 7.478,9.522 C7.478,10.558 8.149,11.397 8.978,11.397 L8.978,11.397 Z M14.978,11.397 C15.807,11.397 16.478,10.558 16.478,9.522 C16.478,8.486 15.807,7.647 14.978,7.647 C14.149,7.647 13.478,8.486 13.478,9.522 C13.478,10.558 14.149,11.397 14.978,11.397 L14.978,11.397 Z M12,22 C10.2,22 8.445,21.808 6.754,21.442 C4.652,20.987 3.013,19.348 2.558,17.245 C2.192,15.555 2,13.8 2,12 C2,10.2 2.192,8.445 2.558,6.755 C3.013,4.652 4.652,3.013 6.754,2.558 C8.445,2.192 10.2,2 12,2 C13.8,2 15.555,2.192 17.246,2.558 C19.349,3.013 20.987,4.652 21.442,6.755 C21.808,8.445 22,10.2 22,12 C22,13.801 21.808,15.556 21.442,17.246 C20.987,19.349 19.349,20.988 17.245,21.442 C15.555,21.808 13.8,22 12,22 L12,22 Z"/>
</svg>
